packages/core/src/svgs/amo.svg

<svg width="24" height="24" viewBox="0 0 24 24" fill="none" xmlns="http://www.w3.org/2000/svg">
<g clip-path="url(#clip0_31_5933)">
<path d="M0 0H24V24H0V0Z" fill="url(#paint0_linear_31_5933)"/>
<path d="M11.1441 6.71529V11.1429H6.90214C6.16929 11.1429 6 10.902 6 10.4786C6.01114 9.44571 6 7.24714 6 6.71529C6 6.213 6.36343 6 6.68486 6H10.3757C10.9907 6 11.1441 6.45729 11.1441 6.71529ZM11.1441 17.2847V12.8571H6.90214C6.16929 12.8571 6 13.098 6 13.5214C6.01114 14.5543 6 16.7529 6 17.2847C6 17.787 6.36343 18 6.68486 18H10.3757C10.9907 18 11.1441 17.5427 11.1441 17.2847ZM12.8559 6.71529V11.1424H17.0979C17.8307 11.1424 18 10.9016 18 10.4781C17.9889 9.44529 18 7.24714 18 6.71529C18 6.213 17.6366 6 17.3151 6H13.6243C13.0097 6 12.8559 6.45729 12.8559 6.71529ZM12.8571 17.2847V12.8571H17.0983C17.8311 12.8571 18 13.098 18 13.5214C17.9889 14.5543 18 16.7529 18 17.2847C18 17.787 17.637 18 17.3156 18H13.6256C13.0101 18 12.8571 17.5427 12.8571 17.2847Z" fill="white"/>
</g>
<defs>
<linearGradient id="paint0_linear_31_5933" x1="4.46486" y1="4.16229" x2="29.2059" y2="32.5787" gradientUnits="userSpaceOnUse">
<stop stop-color="#1A1E21"/>
<stop offset="1" stop-color="#06060A"/>
</linearGradient>
<clipPath id="clip0_31_5933">
<rect width="24" height="24" fill="white"/>
</clipPath>
</defs>
</svg>

<svg xmlns="http://www.w3.org/2000/svg" width="24" height="24" fill="none" viewBox="0 0 24 24"><g clip-path="url(#a)"><path fill="url(#b)" d="M0 0h24v24H0z"/><path fill="#fff" d="M11.144 6.715v4.428H6.902c-.733 0-.902-.241-.902-.664.011-1.033 0-3.232 0-3.764C6 6.213 6.363 6 6.685 6h3.69c.616 0 .77.457.77.715m0 10.57v-4.428H6.902c-.733 0-.902.241-.902.664.011 1.033 0 3.232 0 3.764 0 .502.363.715.685.715h3.69c.616 0 .77-.457.77-.715m1.712-10.57v4.427h4.242c.733 0 .902-.24.902-.664-.011-1.033 0-3.23 0-3.763 0-.502-.363-.715-.685-.715h-3.69c-.615 0-.77.457-.77.715m.001 10.57v-4.428h4.241c.733 0 .902.241.902.664-.011 1.033 0 3.232 0 3.764 0 .502-.363.715-.684.715h-3.69c-.616 0-.769-.457-.769-.715"/></g><defs><linearGradient id="b" x1="4.465" x2="29.206" y1="4.162" y2="32.579" gradientUnits="userSpaceOnUse"><stop stop-color="#1A1E21"/><stop offset="1" stop-color="#06060A"/></linearGradient><clipPath id="a"><path fill="#fff" d="M0 0h24v24H0z"/></clipPath></defs></svg>
